X:4
T:This Little Light of Mine
M:4/4
L:1/4
Q:1/4=160
K:Fmaj
%%score (S A) T
V:S 
%%MIDI program 1 40 % Violin
V:A
%%MIDI program 2 41 % Viola
V:T clef=treble_8 
%%MIDI program 3 42 % Cello
[V:S]
C D/C/ F/ G F/-|F4| A A/A/ A/ G F/-|F3 z |
D F/D/ F/GF/-|F4| F F/F/ F/DC/-|C3 z|
C D/C/ F/GF/-|F4| A A/A/ A/GF/-|F z
 F/F A/-|A z A/AG/-|G z A/GF/-|F4||
[V:A]
A, B,/A,/ C/DC/-|C4|F F/F/ F/DC/-|C3 z|
w:This lit-tle light of mine,_ I'm gon-na let it shine_
B, D/B,/ D/_ED/-|D4|D D/D/ D/B,A,/-|A,3 z |
w:This lit-tle light of mine,_ I'm gon-na let it shine_
A, B,/A,/ C/DC/-|C4|F F/F/ F/ED/-|D z
w:This lit-tle light of mine,_ I'm gon-na let it shine._ 
 C/ CF/-|F z F/FD/-|D z E/DC/-|C4||
w:Let it shine,_ let it shine,_ let it shine._
[V:T]
F, G,/F,/ A,/B,A,/-|A,4| C C/C/ C/B,A,/-|A,3 z |
F, B,/F,/ B,/CB,/-|B,4|B, B,/B,/ B,/G,F,/-|F,3z|
F, G,/F,/ A,/B,A,/-|A,4| C C/C/ C/B,A,/-|A, z
A,/A,C/-|C z C/CB,/-|B, z C/B,A,/-|A,4||
%
W:Everywhere I go, I'm gonna let it shine (3x)
W:(Chorus)
W:Free of hate and fear, I'm gonna let it shine (3x)
W:(Chorus)
W:Building a new world, I'm gonna let it shine (3x)
W:(Chorus)
